X:1
T:Title
%%score { 1 | ( 2 3 ) }
L:1/8
M:4/4
K:Bb
V:1 treble nm="Grand Piano"
V:2 bass 
V:3 bass 
V:1
 z4 z2[Q:1/4=100] [DF]2 | [Fd]2 [Fd]c [DB]2 [FB]2 | [GB]2 [GB]A G2 G2 | [DF]2 [DB]2 d2 cB | %4
[M:3/4] c6 |[M:1/4] F2 |[M:4/4] [Fd]2 [Fd]c [DB]2 .[B,FB]2 | [B,GB]2 [GB][FA] [EG]2 [Ge]2 | %8
 d3 B dcBA |[M:3/4] [DFB]6 |] %10
V:2
 z4 z2 [B,,B,]2 | [B,,B,]2 B,[F,E] [B,,F,]2 [D,B,]2 | [E,B,]2 z F [E,B,E]2 [E,B,E]2 | %3
 z4[K:treble] z2 .[A,C]2 |[M:3/4][K:bass] [F,A,F]6 |[M:1/4] [F,A,]2 | %6
[M:4/4] [B,,B,]2 B,,-[B,,F,E] [B,,F,]2 z _A | E,2 [E,B,]2 [E,B,]2 [E,B,]2 | [F,B,F]3 [F,DF] FEDC | %9
[M:3/4] B,,6 |] %10
V:3
 x8 | z2 B,,2 z4 | z2 [E,B,]2 z4 | [B,,B,]2 [B,,B,]2[K:treble] [B,F]2 F-[G,DF] | %4
[M:3/4][K:bass] x6 |[M:1/4] x2 |[M:4/4] z2 .B,2 z2 D,2 | x8 | z4 F,2 [F,F]2 |[M:3/4] x6 |] %10

